X:19
%%etbk:tnset id:7,pos:2,rep:3
%%etbk:site1 http://www.thesession.org/tunes/display/227
T: Crooked Road To Dublin, The
Z: Piano Box Version by Martin Fleischmann (www.boxplayer.ch)
M: 4/4
L: 1/8
R: Reel
K: Gmaj
!2!G3 G !1!FGAF|GG !1!F!2!G !3!A!5!d!4!c!3!A|!2!G2AG !1!F!5!d!2!d!5!g|!4!f!3!d!2!c!1!A !4!d!2!B!3!c!1!A|
!2!G3 G FGAF|GG FG AdcA|G2AG Fddg|!4!f!3!d!2!c!1!A !3!d2 !1!B!2!c|
!1!d~!3!g3 !2!fgaf|!1!d!3!g!2!g!3!g !4!a!3!g!2!f!1!e|!1!d!3!~g3 !2!fgag|!2!f!1!d!3!c!1!A !4!d2!2!B!3!c|
!1!d~g3 fgaf|dggg a2ga|!5!bg!4!af !3!gbag|!3!f!1!d!3!c!1!A !4!d!2!B!3!c!1!A|

